X:68
T:The Temple of Health
M:6/8
L:1/8
Z:Alf Warnock - alf0@rogers.com
K:D
A|:d>cd AFD|f>ef d2f|a>fd c2d|e/f/gf e2A|
d>cd AFD|f>ef e2d|c>ea cdB|A3 A3:|
e>fe e2f|g2f e3|a>ba afd|e/f/gf e3|
gbg faf|efd cBA|a>ba afd|e3 d3:|
